src/images/svg/be-square/linkedin.svg

<svg width="32" height="33" viewBox="0 0 32 33" fill="none" xmlns="http://www.w3.org/2000/svg">
<path d="M26.0181 2.67212H5.98255C4.15142 2.67212 2.66699 4.15654 2.66699 5.98767V26.0232C2.66699 27.8544 4.15142 29.3388 5.98255 29.3388H26.0181C27.8492 29.3388 29.3337 27.8544 29.3337 26.0232V5.98767C29.3337 4.15654 27.8492 2.67212 26.0181 2.67212Z" fill="white"/>
<path fill-rule="evenodd" clip-rule="evenodd" d="M7.98891 11.1152C9.2468 11.1152 10.0512 10.2764 10.0512 9.2399C10.027 8.15302 9.24678 7.33862 8.01301 7.33862C6.78001 7.33862 5.97567 8.15302 6.00056 9.2399C5.97567 10.2764 6.78003 11.1152 7.98891 11.1152ZM6.10169 12.5967V24.6692H9.92591V12.5967H6.10169ZM12.8906 12.5988C12.9412 13.6605 12.9918 14.9443 12.9918 16.4503H12.9933V24.6721H16.8175V17.7096C16.8175 17.3631 16.8673 17.0181 16.9685 16.7708C17.2197 16.0801 17.8483 15.3641 18.9055 15.3641C20.2894 15.3641 20.8424 16.4251 20.8424 17.9814V24.6721H24.6667V17.5112C24.6667 13.9574 22.7795 12.3279 20.2637 12.3279C18.2256 12.3279 16.9677 13.4873 16.4644 14.2528H16.3889L16.2123 12.5988H12.8906Z" fill="#333333"/>
</svg>

<svg xmlns="http://www.w3.org/2000/svg" width="32" height="33" fill="none"  xmlns:v="https://vecta.io/nano"><path d="M26.018 2.672H5.983c-1.831 0-3.316 1.484-3.316 3.316v20.036c0 1.831 1.484 3.316 3.316 3.316h20.036c1.831 0 3.316-1.484 3.316-3.316V5.988c0-1.831-1.485-3.316-3.316-3.316z" fill="#fff"/><path fill-rule="evenodd" d="M7.989 11.115c1.258 0 2.062-.839 2.062-1.875-.024-1.087-.804-1.901-2.038-1.901s-2.037.814-2.012 1.901c-.025 1.037.779 1.875 1.988 1.875zm-1.887 1.482v12.073h3.824V12.597H6.102zm6.789.002l.101 3.851h.002v8.222h3.824V17.71c0-.346.05-.691.151-.939.251-.691.88-1.407 1.937-1.407 1.384 0 1.937 1.061 1.937 2.617v6.691h3.824v-7.161c0-3.554-1.887-5.183-4.403-5.183-2.038 0-3.296 1.159-3.799 1.925h-.076l-.177-1.654h-3.322z" fill="#333"/></svg>
